assets/img/braze_icons/pentagon.svg

<svg fill="none" height="24" viewBox="0 0 24 24" width="24" xmlns="http://www.w3.org/2000/svg"><path d="m12.497 1.54832c-.326-.08363-.6679-.08363-.9939 0-.3781.097-.7012.33356-.9587.52215l-.0715.05223-8.11857 5.89193-.07197.05192c-.25959.18668-.58522.42086-.7948.7509-.18071.28458-.28655.61022-.3077.94667-.02452.39018.1012.77108.20142 1.07468l.0277.0843 3.10029 9.5312.02717.0843c.09749.3042.21977.6857.46881.9866.21473.2595.49151.4605.80466.5844.36317.1438.76382.142 1.0832.1407l.08865-.0003h10.03654l.0886.0003c.3194.0013.7201.0031 1.0832-.1407.3132-.1239.59-.3249.8047-.5844.249-.3009.3713-.6824.4688-.9866l.0272-.0843 3.1003-9.5312.0277-.0843c.1002-.3036.2259-.6845.2014-1.07468-.0212-.33645-.127-.66209-.3077-.94667-.2096-.33004-.5352-.56422-.7948-.75091l-.072-.05191-8.1185-5.89193-.0716-.05224c-.2575-.18858-.5805-.42514-.9586-.52214z" fill="#801ed7"/></svg>

<svg width="24" height="24" viewBox="0 0 24 24" fill="none" xmlns="http://www.w3.org/2000/svg">
<path d="M12.497 1.54832C12.171 1.46469 11.8291 1.46469 11.5031 1.54832C11.125 1.64532 10.8019 1.88188 10.5444 2.07047L10.4729 2.1227L2.35433 8.01463L2.28236 8.06655C2.02277 8.25323 1.69714 8.48741 1.48756 8.81745C1.30685 9.10203 1.20101 9.42767 1.17986 9.76412C1.15534 10.1543 1.28106 10.5352 1.38128 10.8388L1.40898 10.9231L4.50927 20.4543L4.53644 20.5386C4.63393 20.8428 4.75621 21.2243 5.00525 21.5252C5.21998 21.7847 5.49676 21.9857 5.80991 22.1096C6.17308 22.2534 6.57373 22.2516 6.89311 22.2503L6.98176 22.25H17.0183L17.1069 22.2503C17.4263 22.2516 17.827 22.2534 18.1901 22.1096C18.5033 21.9857 18.7801 21.7847 18.9948 21.5252C19.2438 21.2243 19.3661 20.8428 19.4636 20.5386L19.4908 20.4543L22.5911 10.9231L22.6188 10.8388C22.719 10.5352 22.8447 10.1543 22.8202 9.76412C22.799 9.42767 22.6932 9.10203 22.5125 8.81745C22.3029 8.48741 21.9773 8.25323 21.7177 8.06654L21.6457 8.01463L13.5272 2.1227L13.4556 2.07046C13.1981 1.88188 12.8751 1.64532 12.497 1.54832Z" fill="#801ED7"/>
</svg>
